flags/it-55.svg

<svg xmlns="http://www.w3.org/2000/svg" width="512" height="512" fill="none"><path fill="var(--flag-palette-green, #6da544)" d="M0 0h512v512H0z"/><path fill="var(--flag-palette-white, #eeeeee)" d="M152 72h208v384H152z"/><path fill="var(--flag-palette-bright-red, #d80027)" d="M232 136h16l-16 16v96l16 16h-16v48h16l-16 16v96l16 16h16l16-16v-96l-16-16h16v-48h-16l16-16v-96l-16-16h16V88h-48zm112-48h-48v48h16l-16 16v96l16 16h-16v48h16l-16 16v96l16 16h16l16-16v-96l-16-16h16v-48h-16l16-16v-96l-16-16h16zm-176 48h16l-16 16v96l16 16h-16v48h16l-16 16v96l16 16h16l16-16v-96l-16-16h16v-48h-16l16-16v-96l-16-16h16V88h-48z"/></svg>

<svg width="512" height="512" viewBox="0 0 512 512" fill="none" xmlns="http://www.w3.org/2000/svg">
<rect width="512" height="512" fill="var(--flag-palette-green, #6da544)"/>
<path d="M152 72H360V456H152V72Z" fill="var(--flag-palette-white, #eeeeee)"/>
<path d="M232 136H248L232 152V248L248 264H232V312H248L232 328V424L248 440H264L280 424V328L264 312H280V264H264L280 248V152L264 136H280V88H232V136ZM344 88H296V136H312L296 152V248L312 264H296V312H312L296 328V424L312 440H328L344 424V328L328 312H344V264H328L344 248V152L328 136H344V88ZM168 136H184L168 152V248L184 264H168V312H184L168 328V424L184 440H200L216 424V328L200 312H216V264H200L216 248V152L200 136H216V88H168V136Z" fill="var(--flag-palette-bright-red, #d80027)"/>
</svg>
